**kern	**kern	**dynam
*part1	*part1	*part1
*staff2	*staff1	*
*I"Piano	*	*
*clefF4	*clefG2	*
*k[b-e-]	*k[b-e-]	*
=1	=1	=1
2D 2F	4f 4b-	f
.	4f 4b-	.
=	=	=
*	*^	*
2C 2F	8ee-L	2f 2a	.
.	8ddJ	.	.
.	8ccL	.	.
.	8b-J	.	.
=	=	=	=
2F	(8aL	2c 2f	.
.	8b-J)	.	.
.	(8ccL	.	.
.	8aJ)	.	.
*	*v	*v	*
=	=	=
2D 2F	4b-	.
.	8f	.
.	8a-X	p
=	=	=
[2E-	(4a	.
.	8g)	.
.	8bn	.
=	=	=
4E-]	(8ccL	.
.	8ggJ)	.
4C	(8ffL	.
.	8ee-J)	.
=	=	=
4F	(8ddL	.
.	8ccJ)	.
4FF	(8b-XL	.
.	8aJ)	.
=	=	=
4B-	4d 4b-	.
4r	4r	.
==	==	==
*-	*-	*-
!!!system-decoration: {(s1,s2)}
